packages/ui-icons/src/Service-logos/24/Icloud_direct_url.svg

<svg viewBox="0 0 32 32" fill="none" xmlns="http://www.w3.org/2000/svg">
<path d="M28 16C28 22.6274 22.6274 28 16 28C9.37258 28 4 22.6274 4 16C4 9.37258 9.37258 4 16 4C22.6274 4 28 9.37258 28 16Z" fill="white"/>
<path fill-rule="evenodd" clip-rule="evenodd" d="M20.9217 20.5H11.1857C9.42463 20.4904 8 19.0782 8 17.3375C8 16.0015 8.8391 14.859 10.0254 14.3956C10.1784 13.2734 11.1524 12.4081 12.3311 12.4081C12.6915 12.4081 13.0328 12.489 13.3374 12.6335C14.1042 11.3563 15.5145 10.5 17.1275 10.5C19.4449 10.5 21.3441 12.2675 21.5173 14.5114C22.9313 14.778 24 16.0052 24 17.4788C24 19.1474 22.6298 20.5 20.9396 20.5C20.9336 20.5 20.9277 20.5 20.9217 20.4999V20.5Z" fill="url(#paint0_linear_192_10094)"/>
<path fill-rule="evenodd" clip-rule="evenodd" d="M16 4.54167C9.67174 4.54167 4.54167 9.67174 4.54167 16C4.54167 22.3283 9.67174 27.4583 16 27.4583C22.3283 27.4583 27.4583 22.3283 27.4583 16C27.4583 9.67174 22.3283 4.54167 16 4.54167ZM3.5 16C3.5 9.09644 9.09644 3.5 16 3.5C22.9036 3.5 28.5 9.09644 28.5 16C28.5 22.9036 22.9036 28.5 16 28.5C9.09644 28.5 3.5 22.9036 3.5 16Z" fill="#D8D8D8"/>
<defs>
<linearGradient id="paint0_linear_192_10094" x1="8.30369" y1="19.6478" x2="19.4395" y2="9.92513" gradientUnits="userSpaceOnUse">
<stop stop-color="#7DDDFD"/>
<stop offset="1" stop-color="#1197FA"/>
</linearGradient>
</defs>
</svg>

<svg viewBox="0 0 32 32" fill="none" xmlns="http://www.w3.org/2000/svg"><path d="M28 16c0 6.627-5.373 12-12 12S4 22.627 4 16 9.373 4 16 4s12 5.373 12 12Z" fill="#fff"/><path fill-rule="evenodd" clip-rule="evenodd" d="M20.922 20.5h-9.736C9.425 20.49 8 19.078 8 17.337c0-1.335.84-2.478 2.025-2.941a2.317 2.317 0 0 1 2.306-1.988c.36 0 .702.081 1.006.226a4.412 4.412 0 0 1 3.79-2.134c2.318 0 4.217 1.768 4.39 4.011C22.931 14.778 24 16.005 24 17.48c0 1.668-1.37 3.021-3.06 3.021h-.018Z" fill="url(#a)"/><path fill-rule="evenodd" clip-rule="evenodd" d="M16 4.542C9.672 4.542 4.542 9.672 4.542 16S9.672 27.458 16 27.458 27.458 22.328 27.458 16 22.328 4.542 16 4.542ZM3.5 16C3.5 9.096 9.096 3.5 16 3.5S28.5 9.096 28.5 16 22.904 28.5 16 28.5 3.5 22.904 3.5 16Z" fill="#D8D8D8"/><defs><linearGradient id="a" x1="8.304" y1="19.648" x2="19.439" y2="9.925" gradientUnits="userSpaceOnUse"><stop stop-color="#7DDDFD"/><stop offset="1" stop-color="#1197FA"/></linearGradient></defs></svg>
